X: 280
T:the Moray-Shire Farmers Club, a Reel
B:William Marshall's Scottish Airs, Melodies, Strathspeys, Reels &c (1822)
C:William Marshall
L:1/8
M:C|
O:Scotland
R:Reel
Z:Clark Bernst + Richard Robinson
%%Page:39 - 2
F:http://richardrobinson.tunebook.org.uk/tune/4123
%%TBL:{"version":1,"type":"tune","id":"4123"}
K:G
%%staves {1 2}
V:1
D |\
G2 (BG) EAFD | G2 (Bd) gdBG | cedB EAFD | ECFD {F}G2 G :|
f | \
g2 (dg) Bgdg | g2 (fg) aAce | g2 (dg) Bgdg| EAFD {F}G2 (Gf) |
g2 (dg) Bgdg | g2 (fg) aAce | gbaf gdBG | EAFD {F}G2 G |]
V:2 middle=d clef=bass
L:1/4
z/ | gGcd | gGBG | cB[Ac]d | cdGG/ :|
z/ | Gggg | ggdf | gggB | cdGG | Gggg | ggdf | gdgB | cdGG/ |]

